X: 01041
T: FIFE AND DRUM
C: Bob McQuillen May'75
B: Bob's Note Book 1 #41
%R: march
Z: 2019 John Chambers <jc:trillian.mit.edu>
M: C
L: 1/4
K: G
D2 \
| G2 GA | B2 d2 | cd ef | g2 d2 | ef ge | d2 Bd | e>d cB | A2 D2 |
| G2 GA | B2 d2 | cd ef | g2 d2 | c2 e2 | de dc | B2 G>G | G2 :|
|: FG \
| AB cB | AG FG | A2 D2 | D2 GA | B2 d2 | cd ef | g2 G>G | G2 gf |
| e2 g2 | d2 g2 | ce dc | B2 d2 | e2 g2 | fe dc | B2 G>G | G2 :|
%%begintext align
%% For Jack Sloanaker
%%endtext

%%sep 1 1 500

%%sep 1 1 500

